images/indikatorenset/5883.svg

<?xml version="1.0" standalone="no"?><!DOCTYPE svg PUBLIC "-//W3C//DTD SVG 1.1//EN" "http://www.w3.org/Graphics/SVG/1.1/DTD/svg11.dtd"><svg xmlns:xlink="http://www.w3.org/1999/xlink" version="1.1" class="highcharts-root" style="font-family:arial;font-size:12px;" xmlns="http://www.w3.org/2000/svg" viewBox="0 0 320 208"><desc>Created with Highstock 5.0.14</desc><defs><clipPath id="highcharts-vbybjy0-6"><rect x="0" y="0" width="288" height="123" fill="none"></rect></clipPath><clipPath id="highcharts-vbybjy0-7"><rect x="0" y="0" width="288" height="123" fill="none"></rect></clipPath></defs><rect fill="#fbfbfb" class="highcharts-background" x="0" y="0" width="320" height="208" rx="0" ry="0"></rect><rect fill="none" class="highcharts-plot-background" x="29" y="56" width="288" height="123"></rect><g class="highcharts-pane-group"></g><g class="highcharts-grid highcharts-xaxis-grid "><path fill="none" class="highcharts-grid-line" d="M 31.5 56 L 31.5 179" opacity="1"></path><path fill="none" class="highcharts-grid-line" d="M 125.5 56 L 125.5 179" opacity="1"></path><path fill="none" class="highcharts-grid-line" d="M 219.5 56 L 219.5 179" opacity="1"></path><path fill="none" class="highcharts-grid-line" d="M 313.5 56 L 313.5 179" opacity="1"></path></g><g class="highcharts-grid highcharts-yaxis-grid "><path fill="none" stroke="#B9CFD7" stroke-width="0.5" class="highcharts-grid-line" d="M 29 179.25 L 317 179.25" opacity="1"></path><path fill="none" stroke="#B9CFD7" stroke-width="0.5" class="highcharts-grid-line" d="M 29 118.25 L 317 118.25" opacity="1"></path><path fill="none" stroke="#B9CFD7" stroke-width="0.5" class="highcharts-grid-line" d="M 29 55.75 L 317 55.75" opacity="1"></path></g><rect fill="none" class="highcharts-plot-border" x="29" y="56" width="288" height="123"></rect><g class="highcharts-axis highcharts-xaxis "><path fill="none" class="highcharts-axis-line" stroke="#B9CFD7" stroke-width="0.5" d="M 29 179.25 L 317 179.25"></path></g><g class="highcharts-axis highcharts-yaxis "><path fill="none" class="highcharts-axis-line" d="M 29 56 L 29 179"></path></g><g class="highcharts-series-group"><g class="highcharts-series highcharts-series-0 highcharts-line-series highcharts-color-undefined " transform="translate(29,56) scale(1 1)" clip-path="url(#highcharts-vbybjy0-7)"><path fill="none" d="M 2.8235294117622 24.665768100000008 L 96.941176470587 24.063646200000008 L 191.05882352941 22.634597760000005 L 285.17647058824 21.93037848" class="highcharts-graph" stroke="#8b2223" stroke-width="2" stroke-linejoin="round" stroke-linecap="round"></path></g><g class="highcharts-markers highcharts-series-0 highcharts-line-series highcharts-color-undefined " transform="translate(29,56) scale(1 1)" clip-path="none"><path fill="#8b2223" d="M 6 25 A 4 4 0 1 1 5.999998000000167 24.996000000666665 Z" class="highcharts-point"></path><path fill="#8b2223" d="M 100 24 A 4 4 0 1 1 99.99999800000016 23.996000000666665 Z" class="highcharts-point"></path><path fill="#8b2223" d="M 195 23 A 4 4 0 1 1 194.99999800000018 22.996000000666665 Z" class="highcharts-point"></path><path fill="#8b2223" d="M 289 22 A 4 4 0 1 1 288.9999980000002 21.996000000666665 Z" class="highcharts-point"></path></g></g><text x="3" text-anchor="start" class="highcharts-title" style="color:#000000;font-size:10px;font-weight:bold;fill:#000000;" y="22"><tspan>Beschäftigtendichte</tspan></text><text x="3" text-anchor="start" class="highcharts-subtitle" style="color:#000000;font-size:10px;font-weight:normal;font-family:arial;fill:#000000;" y="40"><tspan>Anzahl Beschäftigte pro Hektar</tspan></text><g class="highcharts-data-labels highcharts-series-0 highcharts-line-series highcharts-color-undefined " visibility="visible" transform="translate(29,56) scale(1 1)"><g class="highcharts-label highcharts-data-label highcharts-data-label-color-undefined " transform="translate(-5,25)"><text x="5" style="font-size:10px;font-weight:normal;color:#000000;fill:#000000;" y="15"><tspan x="5" y="15" class="highcharts-text-outline" fill="#FFFFFF" stroke="#FFFFFF" stroke-width="2px" stroke-linejoin="round" style="">2011:</tspan><tspan x="5" dy="13" class="highcharts-text-outline" fill="#FFFFFF" stroke="#FFFFFF" stroke-width="2px" stroke-linejoin="round" style="">40,0</tspan><tspan x="5" y="15">2011:</tspan><tspan x="5" dy="13">40,0</tspan></text></g><g class="highcharts-label highcharts-data-label highcharts-data-label-color-undefined " transform="translate(92,14)"><text x="5" style="font-size:10px;font-weight:normal;color:#000000;fill:#000000;" y="15"></text></g><g class="highcharts-label highcharts-data-label highcharts-data-label-color-undefined " transform="translate(186,13)"><text x="5" style="font-size:10px;font-weight:normal;color:#000000;fill:#000000;" y="15"></text></g><g class="highcharts-label highcharts-data-label highcharts-data-label-color-undefined " transform="translate(258,22)"><text x="5" style="font-size:10px;font-weight:normal;color:#000000;fill:#000000;" y="15"><tspan x="5" y="15" class="highcharts-text-outline" fill="#FFFFFF" stroke="#FFFFFF" stroke-width="2px" stroke-linejoin="round" style="">2014:</tspan><tspan x="5" dy="13" class="highcharts-text-outline" fill="#FFFFFF" stroke="#FFFFFF" stroke-width="2px" stroke-linejoin="round" style="">41,1</tspan><tspan x="5" y="15">2014:</tspan><tspan x="5" dy="13">41,1</tspan></text></g></g><g class="highcharts-axis-labels highcharts-xaxis-labels "><text x="31.823529411762188" style="color:#000000;cursor:default;font-size:10;fill:#000000;" text-anchor="middle" transform="translate(0,0)" y="199" opacity="1"><tspan>2011</tspan></text><text x="125.94117647058741" style="color:#000000;cursor:default;font-size:10;fill:#000000;" text-anchor="middle" transform="translate(0,0)" y="199" opacity="1"><tspan>2012</tspan></text><text x="220.05882352941262" style="color:#000000;cursor:default;font-size:10;fill:#000000;" text-anchor="middle" transform="translate(0,0)" y="199" opacity="1"><tspan>2013</tspan></text><text x="305.90625" style="color:#000000;cursor:default;font-size:10;fill:#000000;" text-anchor="middle" transform="translate(0,0)" y="199" opacity="1"><tspan>2014</tspan></text></g><g class="highcharts-axis-labels highcharts-yaxis-labels "><text x="14" style="color:#000000;cursor:default;font-size:10;fill:#000000;" text-anchor="end" transform="translate(0,0)" y="185" opacity="1"><tspan>0</tspan></text><text x="14" style="color:#000000;cursor:default;font-size:10;fill:#000000;" text-anchor="end" transform="translate(0,0)" y="123" opacity="1"><tspan>25</tspan></text><text x="14" style="color:#000000;cursor:default;font-size:10;fill:#000000;" text-anchor="end" transform="translate(0,0)" y="62" opacity="1"><tspan>50</tspan></text></g><text x="10" class="highcharts-credits" text-anchor="start" style="cursor:default;color:#000000;font-size:10px;fill:#000000;" y="193"><tspan>Quelle: Bundesamt für Statistik (BFS), Statistik der Unternehmensstruktur (STATENT)</tspan></text></svg>

<svg class="highcharts-root" xmlns="http://www.w3.org/2000/svg" viewBox="0 0 320 208" font-family="arial" font-size="12">
    <defs>
        <clipPath id="a">
            <path fill="none" d="M0 0h288v123H0z"/>
        </clipPath>
    </defs>
    <rect fill="#fbfbfb" class="highcharts-background" width="320" height="208" rx="0" ry="0"/>
    <path fill="none" class="highcharts-plot-background" d="M29 56h288v123H29z"/>
    <g class="highcharts-grid highcharts-xaxis-grid">
        <path fill="none" class="highcharts-grid-line" d="M31.5 56v123m94-123v123m94-123v123m94-123v123"/>
    </g>
    <g class="highcharts-grid highcharts-yaxis-grid">
        <path fill="none" stroke="#B9CFD7" stroke-width=".5" class="highcharts-grid-line" d="M29 179.25h288m-288-61h288M29 55.75h288"/>
    </g>
    <path fill="none" class="highcharts-plot-border" d="M29 56h288v123H29z"/>
    <g class="highcharts-axis highcharts-xaxis">
        <path fill="none" class="highcharts-axis-line" stroke="#B9CFD7" stroke-width=".5" d="M29 179.25h288"/>
    </g>
    <g class="highcharts-axis highcharts-yaxis">
        <path fill="none" class="highcharts-axis-line" d="M29 56v123"/>
    </g>
    <g class="highcharts-series-group">
        <g class="highcharts-series highcharts-series-0 highcharts-line-series highcharts-color-undefined" transform="translate(29 56)" clip-path="url(#a)">
            <path fill="none" d="M2.824 24.666l94.117-.602 94.118-1.43 94.117-.704" class="highcharts-graph" stroke="#8b2223" stroke-width="2" stroke-linejoin="round" stroke-linecap="round"/>
        </g>
        <g class="highcharts-markers highcharts-series-0 highcharts-line-series highcharts-color-undefined">
            <path fill="#8b2223" d="M35 81a4 4 0 1 1 0-.004zm94-1a4 4 0 1 1 0-.004zm95-1a4 4 0 1 1 0-.004zm94-1a4 4 0 1 1 0-.004z" class="highcharts-point"/>
        </g>
    </g>
    <text x="3" class="highcharts-title" y="22" color="#000" font-size="10" font-weight="700">
        <tspan>Beschäftigtendichte</tspan>
    </text>
    <text x="3" class="highcharts-subtitle" y="40" color="#000" font-size="10" font-weight="400">
        <tspan>Anzahl Beschäftigte pro Hektar</tspan>
    </text>
    <g class="highcharts-data-labels highcharts-series-0 highcharts-line-series highcharts-color-undefined">
        <text x="5" y="15" font-size="10" font-weight="400" color="#000" transform="translate(24 81)" class="highcharts-label highcharts-data-label highcharts-data-label-color-undefined">
            <tspan x="5" y="15" class="highcharts-text-outline" fill="#FFF" stroke="#FFF" stroke-width="2" stroke-linejoin="round">2011:</tspan><tspan x="5" dy="13" class="highcharts-text-outline" fill="#FFF" stroke="#FFF" stroke-width="2" stroke-linejoin="round">40,0</tspan><tspan x="5" y="15">2011:</tspan><tspan x="5" dy="13">40,0</tspan>
        </text>
        <text x="5" y="15" font-size="10" font-weight="400" color="#000" transform="translate(287 78)" class="highcharts-label highcharts-data-label highcharts-data-label-color-undefined">
            <tspan x="5" y="15" class="highcharts-text-outline" fill="#FFF" stroke="#FFF" stroke-width="2" stroke-linejoin="round">2014:</tspan><tspan x="5" dy="13" class="highcharts-text-outline" fill="#FFF" stroke="#FFF" stroke-width="2" stroke-linejoin="round">41,1</tspan><tspan x="5" y="15">2014:</tspan><tspan x="5" dy="13">41,1</tspan>
        </text>
    </g>
    <g class="highcharts-axis-labels highcharts-xaxis-labels" text-anchor="middle" color="#000" cursor="default" font-size="10">
        <text x="31.824" y="199">
            <tspan>2011</tspan>
        </text>
        <text x="125.941" y="199">
            <tspan>2012</tspan>
        </text>
        <text x="220.059" y="199">
            <tspan>2013</tspan>
        </text>
        <text x="305.906" y="199">
            <tspan>2014</tspan>
        </text>
    </g>
    <g class="highcharts-axis-labels highcharts-yaxis-labels" text-anchor="end" color="#000" cursor="default" font-size="10">
        <text x="14" y="185">
            <tspan>0</tspan>
        </text>
        <text x="14" y="123">
            <tspan>25</tspan>
        </text>
        <text x="14" y="62">
            <tspan>50</tspan>
        </text>
    </g>
    <text x="10" class="highcharts-credits" y="193" cursor="default" color="#000" font-size="10">
        <tspan>Quelle: Bundesamt für Statistik (BFS), Statistik der Unternehmensstruktur (STATENT)</tspan>
    </text>
</svg>
